dashboard/assets/tech/circle23.svg

<svg preserveAspectRatio="none" xmlns="http://www.w3.org/2000/svg" viewBox="0 0 147.91 144.97"><defs><style>.cls-35{fill:#fff;mix-blend-mode:overlay}</style></defs><g style="isolation:isolate"><g id="Layer_1" data-name="Layer 1"><path d="M319.77 122.66a24.72 24.72 0 1024.72 24.72 24.75 24.75 0 00-24.72-24.72zm0 62.3a37.57 37.57 0 1137.57-37.57A37.62 37.62 0 01319.77 185z" transform="translate(-242.81 -72.9)" opacity=".03" fill="#0ff"/><path d="M319.77 122.53a24.86 24.86 0 1024.86 24.86 24.88 24.88 0 00-24.86-24.86zm0 62.3a37.44 37.44 0 1137.44-37.44 37.48 37.48 0 01-37.44 37.44z" transform="translate(-242.81 -72.9)" opacity=".06" fill="#0ff"/><path d="M319.77 122.4a25 25 0 1025 25 25 25 0 00-25-25zm0 62.3a37.31 37.31 0 1137.31-37.31 37.35 37.35 0 01-37.31 37.3z" transform="translate(-242.81 -72.9)" opacity=".1" fill="#0ff"/><path d="M319.77 122.26a25.12 25.12 0 1025.12 25.12 25.15 25.15 0 00-25.12-25.12zm0 62.3a37.18 37.18 0 1137.18-37.18 37.22 37.22 0 01-37.18 37.18z" transform="translate(-242.81 -72.9)" opacity=".13" fill="#0ff"/><path d="M319.77 122.13A25.25 25.25 0 10345 147.38a25.28 25.28 0 00-25.23-25.25zm0 62.3a37 37 0 1137-37 37.09 37.09 0 01-37 37z" transform="translate(-242.81 -72.9)" opacity=".16" fill="#0ff"/><path d="M319.77 122a25.38 25.38 0 1025.38 25.38A25.41 25.41 0 00319.77 122zm0 62.3a36.91 36.91 0 1136.91-36.91 37 37 0 01-36.91 36.91z" transform="translate(-242.81 -72.9)" opacity=".19" fill="#0ff"/><path d="M319.77 121.87a25.52 25.52 0 1025.52 25.52 25.55 25.55 0 00-25.52-25.52zm0 62.3a36.78 36.78 0 1136.78-36.78 36.82 36.82 0 01-36.78 36.78z" transform="translate(-242.81 -72.9)" opacity=".23" fill="#0ff"/><path d="M319.77 121.74a25.65 25.65 0 1025.65 25.65 25.68 25.68 0 00-25.65-25.65zm0 62.3a36.65 36.65 0 1136.65-36.65A36.69 36.69 0 01319.77 184z" transform="translate(-242.81 -72.9)" opacity=".26" fill="#0ff"/><path d="M319.77 121.6a25.78 25.78 0 1025.78 25.78 25.81 25.81 0 00-25.78-25.78zm0 62.3a36.52 36.52 0 1136.52-36.52 36.56 36.56 0 01-36.52 36.52z" transform="translate(-242.81 -72.9)" opacity=".29" fill="#0ff"/><path d="M319.77 121.47a25.91 25.91 0 1025.91 25.91 25.94 25.94 0 00-25.91-25.91zm0 62.3a36.38 36.38 0 1136.38-36.38 36.43 36.43 0 01-36.38 36.38z" transform="translate(-242.81 -72.9)" opacity=".32" fill="#0ff"/><path d="M319.77 121.34a26 26 0 1026 26 26.08 26.08 0 00-26-26zm0 62.3A36.25 36.25 0 11356 147.38a36.29 36.29 0 01-36.23 36.26z" transform="translate(-242.81 -72.9)" opacity=".35" fill="#0ff"/><path d="M319.77 121.21a26.18 26.18 0 1026.18 26.18 26.21 26.21 0 00-26.18-26.18zm0 62.3a36.12 36.12 0 1136.12-36.12 36.16 36.16 0 01-36.12 36.11z" transform="translate(-242.81 -72.9)" opacity=".39" fill="#0ff"/><path d="M319.77 121.07a26.31 26.31 0 1026.31 26.31 26.34 26.34 0 00-26.31-26.31zm0 62.3a36 36 0 1136-36 36 36 0 01-36 36z" transform="translate(-242.81 -72.9)" opacity=".42" fill="#0ff"/><path d="M319.77 120.94a26.44 26.44 0 1026.44 26.44 26.47 26.47 0 00-26.44-26.44zm0 62.3a35.86 35.86 0 1135.86-35.86 35.9 35.9 0 01-35.86 35.86z" transform="translate(-242.81 -72.9)" opacity=".45" fill="#0ff"/><path d="M319.77 120.81a26.57 26.57 0 1026.57 26.57 26.6 26.6 0 00-26.57-26.57zm0 62.3a35.72 35.72 0 1135.72-35.72 35.76 35.76 0 01-35.72 35.72z" transform="translate(-242.81 -72.9)" opacity=".48" fill="#0ff"/><path d="M319.77 120.68a26.71 26.71 0 1026.71 26.71 26.74 26.74 0 00-26.71-26.71zm0 62.3a35.59 35.59 0 1135.59-35.59A35.63 35.63 0 01319.77 183z" transform="translate(-242.81 -72.9)" opacity=".52" fill="#0ff"/><path d="M319.77 120.55a26.84 26.84 0 1026.84 26.84 26.87 26.87 0 00-26.84-26.84zm0 62.3a35.46 35.46 0 1135.46-35.46 35.5 35.5 0 01-35.46 35.45z" transform="translate(-242.81 -72.9)" opacity=".55" fill="#0ff"/><path d="M319.77 120.41a27 27 0 1027 27 27 27 0 00-27-27zm0 62.3a35.33 35.33 0 1135.33-35.33 35.37 35.37 0 01-35.33 35.33z" transform="translate(-242.81 -72.9)" opacity=".58" fill="#0ff"/><path d="M319.77 120.28a27.1 27.1 0 1027.1 27.1 27.13 27.13 0 00-27.1-27.1zm0 62.3a35.19 35.19 0 1135.23-35.2 35.23 35.23 0 01-35.23 35.2z" transform="translate(-242.81 -72.9)" opacity=".61" fill="#0ff"/><path d="M319.77 120.15A27.24 27.24 0 10347 147.38a27.27 27.27 0 00-27.23-27.23zm0 62.3a35.06 35.06 0 1135.06-35.06 35.1 35.1 0 01-35.06 35.06z" transform="translate(-242.81 -72.9)" opacity=".65" fill="#0ff"/><path d="M319.77 120a27.37 27.37 0 1027.37 27.37A27.4 27.4 0 00319.77 120zm0 62.3a34.93 34.93 0 1134.93-34.93 35 35 0 01-34.93 34.94z" transform="translate(-242.81 -72.9)" opacity=".68" fill="#0ff"/><path d="M319.77 119.88a27.5 27.5 0 1027.5 27.5 27.53 27.53 0 00-27.5-27.5zm0 62.3a34.8 34.8 0 1134.8-34.8 34.84 34.84 0 01-34.8 34.8z" transform="translate(-242.81 -72.9)" opacity=".71" fill="#0ff"/><path d="M319.77 119.75a27.63 27.63 0 1027.63 27.63 27.66 27.66 0 00-27.63-27.63zm0 62.3a34.67 34.67 0 1134.67-34.67A34.71 34.71 0 01319.77 182z" transform="translate(-242.81 -72.9)" opacity=".74" fill="#0ff"/><path d="M319.77 119.62a27.76 27.76 0 1027.76 27.76 27.8 27.8 0 00-27.76-27.76zm0 62.3a34.53 34.53 0 1134.53-34.53 34.57 34.57 0 01-34.53 34.53z" transform="translate(-242.81 -72.9)" opacity=".77" fill="#0ff"/><path d="M319.77 119.49a27.9 27.9 0 1027.9 27.9 27.93 27.93 0 00-27.9-27.9zm0 62.3a34.4 34.4 0 1134.4-34.4 34.44 34.44 0 01-34.4 34.4z" transform="translate(-242.81 -72.9)" opacity=".81" fill="#0ff"/><path d="M319.77 119.36a28 28 0 1028 28 28.06 28.06 0 00-28-28zm0 62.3A34.27 34.27 0 11354 147.38a34.31 34.31 0 01-34.23 34.27z" transform="translate(-242.81 -72.9)" opacity=".84" fill="#0ff"/><path d="M319.77 119.22a28.16 28.16 0 1028.16 28.16 28.19 28.19 0 00-28.16-28.16zm0 62.3a34.14 34.14 0 1134.14-34.14 34.18 34.18 0 01-34.14 34.14z" transform="translate(-242.81 -72.9)" opacity=".87" fill="#0ff"/><path d="M319.77 119.09a28.29 28.29 0 1028.29 28.29 28.33 28.33 0 00-28.29-28.29zm0 62.3a34 34 0 1134-34 34 34 0 01-34 34z" transform="translate(-242.81 -72.9)" opacity=".9" fill="#0ff"/><path d="M319.77 119a28.43 28.43 0 1028.43 28.43A28.46 28.46 0 00319.77 119zm0 62.3a33.87 33.87 0 1133.87-33.87 33.91 33.91 0 01-33.87 33.83z" transform="translate(-242.81 -72.9)" opacity=".94" fill="#0ff"/><path d="M319.77 118.83a28.56 28.56 0 1028.56 28.56 28.59 28.59 0 00-28.56-28.56zm0 62.3a33.74 33.74 0 1133.74-33.74 33.78 33.78 0 01-33.74 33.73z" transform="translate(-242.81 -72.9)" opacity=".97" fill="#0ff"/><path d="M319.77 118.69a28.69 28.69 0 1028.69 28.69 28.72 28.72 0 00-28.69-28.69zm0 62.3a33.61 33.61 0 1133.61-33.61A33.65 33.65 0 01319.77 181z" transform="translate(-242.81 -72.9)" fill="#0ff"/><g opacity=".7"><path class="cls-35" d="M302.19 217.87l1.73-7.31a63.69 63.69 0 01-28.48-15.25l1.92-1.91c-12.41-11.48-19.53-29.61-19.53-44.61h-2.74c.14-35 30.61-63.6 64.61-63.6v2.76c25 0 47.92 16.09 56.62 40l14.38-5.13c-10.85-29.87-41-49.93-71-49.93v4.76c-41 0-72 31.11-72.12 71.11h-4.78a76 76 0 0024.35 55.58l3.16-3.47a71.1 71.1 0 0031.88 17z" transform="translate(-242.81 -72.9)"/><path d="M252 147.47a68.54 68.54 0 0068.72 68.34v-7.21a72.21 72.21 0 009.67-.84l-.09.64c14.27-2.36 27.24-9.09 36.69-20.13a61.4 61.4 0 0014.73-39.49h6.57c0-38-30.47-69-68.15-69A67.7 67.7 0 00252 147.47zm68 53.74c-29.27 0-52.71-24.14-52.71-53.41s24.47-53.42 53.47-53.42V88.1c31 0 58.18 26.67 58.18 60.67 0 0 0-3 0 0H373c0 28-23.77 52.44-53 52.44z" transform="translate(-242.81 -72.9)" style="mix-blend-mode:overlay" opacity=".2" fill="#fff"/><path class="cls-35" d="M359.64 149.77a38.71 38.71 0 01-10.4 25l5.21 5.27A46.29 46.29 0 00367 149.77h-7.38zM346.71 177.23a38.79 38.79 0 01-25 10.4V195A46.33 46.33 0 00352 182.45zM349.24 120.75a38.88 38.88 0 0110.4 25H367a46.38 46.38 0 00-12.56-30.26zM317.71 195v-7.38a38.79 38.79 0 01-25-10.4l-5.25 5.21A46.33 46.33 0 00317.71 195zM290.19 174.73a38.71 38.71 0 01-10.4-25h-7.38A46.29 46.29 0 00285 180zM321.71 107.79a38.79 38.79 0 0125 10.4L352 113a46.33 46.33 0 00-30.25-12.56v7.38zM279.79 145.77a38.88 38.88 0 0110.4-25l-5.19-5.26a46.38 46.38 0 00-12.56 30.26h7.38zM292.72 118.19a38.79 38.79 0 0125-10.4v-7.38A46.33 46.33 0 00287.47 113z" transform="translate(-242.81 -72.9)"/></g></g></g></svg>

<svg preserveAspectRatio="none" xmlns="http://www.w3.org/2000/svg" viewBox="0 0 147.91 144.97"><defs><style>.cls-1{isolation:isolate;}.cls-10,.cls-11,.cls-12,.cls-13,.cls-14,.cls-15,.cls-16,.cls-17,.cls-18,.cls-19,.cls-2,.cls-20,.cls-21,.cls-22,.cls-23,.cls-24,.cls-25,.cls-26,.cls-27,.cls-28,.cls-29,.cls-3,.cls-30,.cls-31,.cls-32,.cls-33,.cls-4,.cls-5,.cls-6,.cls-7,.cls-8,.cls-9{fill:aqua;}.cls-2{opacity:0;}.cls-3{opacity:0.03;}.cls-4{opacity:0.06;}.cls-5{opacity:0.1;}.cls-6{opacity:0.13;}.cls-7{opacity:0.16;}.cls-8{opacity:0.19;}.cls-9{opacity:0.23;}.cls-10{opacity:0.26;}.cls-11{opacity:0.29;}.cls-12{opacity:0.32;}.cls-13{opacity:0.35;}.cls-14{opacity:0.39;}.cls-15{opacity:0.42;}.cls-16{opacity:0.45;}.cls-17{opacity:0.48;}.cls-18{opacity:0.52;}.cls-19{opacity:0.55;}.cls-20{opacity:0.58;}.cls-21{opacity:0.61;}.cls-22{opacity:0.65;}.cls-23{opacity:0.68;}.cls-24{opacity:0.71;}.cls-25{opacity:0.74;}.cls-26{opacity:0.77;}.cls-27{opacity:0.81;}.cls-28{opacity:0.84;}.cls-29{opacity:0.87;}.cls-30{opacity:0.9;}.cls-31{opacity:0.94;}.cls-32{opacity:0.97;}.cls-34{opacity:0.7;}.cls-35,.cls-36{fill:#fff;mix-blend-mode:overlay;}.cls-36{opacity:0.2;}</style></defs><title>circle23</title><g class="cls-1"><g id="Layer_1" data-name="Layer 1"><path class="cls-2" d="M319.77,122.79a24.59,24.59,0,1,0,24.59,24.59A24.62,24.62,0,0,0,319.77,122.79Zm0,62.3a37.71,37.71,0,1,1,37.71-37.71A37.75,37.75,0,0,1,319.77,185.09Z" transform="translate(-242.81 -72.9)"/><path class="cls-3" d="M319.77,122.66a24.72,24.72,0,1,0,24.72,24.72A24.75,24.75,0,0,0,319.77,122.66Zm0,62.3a37.57,37.57,0,1,1,37.57-37.57A37.62,37.62,0,0,1,319.77,185Z" transform="translate(-242.81 -72.9)"/><path class="cls-4" d="M319.77,122.53a24.86,24.86,0,1,0,24.86,24.86A24.88,24.88,0,0,0,319.77,122.53Zm0,62.3a37.44,37.44,0,1,1,37.44-37.44A37.48,37.48,0,0,1,319.77,184.83Z" transform="translate(-242.81 -72.9)"/><path class="cls-5" d="M319.77,122.4a25,25,0,1,0,25,25A25,25,0,0,0,319.77,122.4Zm0,62.3a37.31,37.31,0,1,1,37.31-37.31A37.35,37.35,0,0,1,319.77,184.69Z" transform="translate(-242.81 -72.9)"/><path class="cls-6" d="M319.77,122.26a25.12,25.12,0,1,0,25.12,25.12A25.15,25.15,0,0,0,319.77,122.26Zm0,62.3a37.18,37.18,0,1,1,37.18-37.18A37.22,37.22,0,0,1,319.77,184.56Z" transform="translate(-242.81 -72.9)"/><path class="cls-7" d="M319.77,122.13A25.25,25.25,0,1,0,345,147.38,25.28,25.28,0,0,0,319.77,122.13Zm0,62.3a37,37,0,1,1,37-37A37.09,37.09,0,0,1,319.77,184.43Z" transform="translate(-242.81 -72.9)"/><path class="cls-8" d="M319.77,122a25.38,25.38,0,1,0,25.38,25.38A25.41,25.41,0,0,0,319.77,122Zm0,62.3a36.91,36.91,0,1,1,36.91-36.91A37,37,0,0,1,319.77,184.3Z" transform="translate(-242.81 -72.9)"/><path class="cls-9" d="M319.77,121.87a25.52,25.52,0,1,0,25.52,25.52A25.55,25.55,0,0,0,319.77,121.87Zm0,62.3a36.78,36.78,0,1,1,36.78-36.78A36.82,36.82,0,0,1,319.77,184.17Z" transform="translate(-242.81 -72.9)"/><path class="cls-10" d="M319.77,121.74a25.65,25.65,0,1,0,25.65,25.65A25.68,25.68,0,0,0,319.77,121.74Zm0,62.3a36.65,36.65,0,1,1,36.65-36.65A36.69,36.69,0,0,1,319.77,184Z" transform="translate(-242.81 -72.9)"/><path class="cls-11" d="M319.77,121.6a25.78,25.78,0,1,0,25.78,25.78A25.81,25.81,0,0,0,319.77,121.6Zm0,62.3a36.52,36.52,0,1,1,36.52-36.52A36.56,36.56,0,0,1,319.77,183.9Z" transform="translate(-242.81 -72.9)"/><path class="cls-12" d="M319.77,121.47a25.91,25.91,0,1,0,25.91,25.91A25.94,25.94,0,0,0,319.77,121.47Zm0,62.3a36.38,36.38,0,1,1,36.38-36.38A36.43,36.43,0,0,1,319.77,183.77Z" transform="translate(-242.81 -72.9)"/><path class="cls-13" d="M319.77,121.34a26,26,0,1,0,26,26A26.08,26.08,0,0,0,319.77,121.34Zm0,62.3A36.25,36.25,0,1,1,356,147.38,36.29,36.29,0,0,1,319.77,183.64Z" transform="translate(-242.81 -72.9)"/><path class="cls-14" d="M319.77,121.21a26.18,26.18,0,1,0,26.18,26.18A26.21,26.21,0,0,0,319.77,121.21Zm0,62.3a36.12,36.12,0,1,1,36.12-36.12A36.16,36.16,0,0,1,319.77,183.5Z" transform="translate(-242.81 -72.9)"/><path class="cls-15" d="M319.77,121.07a26.31,26.31,0,1,0,26.31,26.31A26.34,26.34,0,0,0,319.77,121.07Zm0,62.3a36,36,0,1,1,36-36A36,36,0,0,1,319.77,183.37Z" transform="translate(-242.81 -72.9)"/><path class="cls-16" d="M319.77,120.94a26.44,26.44,0,1,0,26.44,26.44A26.47,26.47,0,0,0,319.77,120.94Zm0,62.3a35.86,35.86,0,1,1,35.86-35.86A35.9,35.9,0,0,1,319.77,183.24Z" transform="translate(-242.81 -72.9)"/><path class="cls-17" d="M319.77,120.81a26.57,26.57,0,1,0,26.57,26.57A26.6,26.6,0,0,0,319.77,120.81Zm0,62.3a35.72,35.72,0,1,1,35.72-35.72A35.76,35.76,0,0,1,319.77,183.11Z" transform="translate(-242.81 -72.9)"/><path class="cls-18" d="M319.77,120.68a26.71,26.71,0,1,0,26.71,26.71A26.74,26.74,0,0,0,319.77,120.68Zm0,62.3a35.59,35.59,0,1,1,35.59-35.59A35.63,35.63,0,0,1,319.77,183Z" transform="translate(-242.81 -72.9)"/><path class="cls-19" d="M319.77,120.55a26.84,26.84,0,1,0,26.84,26.84A26.87,26.87,0,0,0,319.77,120.55Zm0,62.3a35.46,35.46,0,1,1,35.46-35.46A35.5,35.5,0,0,1,319.77,182.84Z" transform="translate(-242.81 -72.9)"/><path class="cls-20" d="M319.77,120.41a27,27,0,1,0,27,27A27,27,0,0,0,319.77,120.41Zm0,62.3a35.33,35.33,0,1,1,35.33-35.33A35.37,35.37,0,0,1,319.77,182.71Z" transform="translate(-242.81 -72.9)"/><path class="cls-21" d="M319.77,120.28a27.1,27.1,0,1,0,27.1,27.1A27.13,27.13,0,0,0,319.77,120.28Zm0,62.3A35.19,35.19,0,1,1,355,147.38,35.23,35.23,0,0,1,319.77,182.58Z" transform="translate(-242.81 -72.9)"/><path class="cls-22" d="M319.77,120.15A27.24,27.24,0,1,0,347,147.38,27.27,27.27,0,0,0,319.77,120.15Zm0,62.3a35.06,35.06,0,1,1,35.06-35.06A35.1,35.1,0,0,1,319.77,182.45Z" transform="translate(-242.81 -72.9)"/><path class="cls-23" d="M319.77,120a27.37,27.37,0,1,0,27.37,27.37A27.4,27.4,0,0,0,319.77,120Zm0,62.3a34.93,34.93,0,1,1,34.93-34.93A35,35,0,0,1,319.77,182.31Z" transform="translate(-242.81 -72.9)"/><path class="cls-24" d="M319.77,119.88a27.5,27.5,0,1,0,27.5,27.5A27.53,27.53,0,0,0,319.77,119.88Zm0,62.3a34.8,34.8,0,1,1,34.8-34.8A34.84,34.84,0,0,1,319.77,182.18Z" transform="translate(-242.81 -72.9)"/><path class="cls-25" d="M319.77,119.75a27.63,27.63,0,1,0,27.63,27.63A27.66,27.66,0,0,0,319.77,119.75Zm0,62.3a34.67,34.67,0,1,1,34.67-34.67A34.71,34.71,0,0,1,319.77,182Z" transform="translate(-242.81 -72.9)"/><path class="cls-26" d="M319.77,119.62a27.76,27.76,0,1,0,27.76,27.76A27.8,27.8,0,0,0,319.77,119.62Zm0,62.3a34.53,34.53,0,1,1,34.53-34.53A34.57,34.57,0,0,1,319.77,181.92Z" transform="translate(-242.81 -72.9)"/><path class="cls-27" d="M319.77,119.49a27.9,27.9,0,1,0,27.9,27.9A27.93,27.93,0,0,0,319.77,119.49Zm0,62.3a34.4,34.4,0,1,1,34.4-34.4A34.44,34.44,0,0,1,319.77,181.79Z" transform="translate(-242.81 -72.9)"/><path class="cls-28" d="M319.77,119.36a28,28,0,1,0,28,28A28.06,28.06,0,0,0,319.77,119.36Zm0,62.3A34.27,34.27,0,1,1,354,147.38,34.31,34.31,0,0,1,319.77,181.65Z" transform="translate(-242.81 -72.9)"/><path class="cls-29" d="M319.77,119.22a28.16,28.16,0,1,0,28.16,28.16A28.19,28.19,0,0,0,319.77,119.22Zm0,62.3a34.14,34.14,0,1,1,34.14-34.14A34.18,34.18,0,0,1,319.77,181.52Z" transform="translate(-242.81 -72.9)"/><path class="cls-30" d="M319.77,119.09a28.29,28.29,0,1,0,28.29,28.29A28.33,28.33,0,0,0,319.77,119.09Zm0,62.3a34,34,0,1,1,34-34A34,34,0,0,1,319.77,181.39Z" transform="translate(-242.81 -72.9)"/><path class="cls-31" d="M319.77,119a28.43,28.43,0,1,0,28.43,28.43A28.46,28.46,0,0,0,319.77,119Zm0,62.3a33.87,33.87,0,1,1,33.87-33.87A33.91,33.91,0,0,1,319.77,181.26Z" transform="translate(-242.81 -72.9)"/><path class="cls-32" d="M319.77,118.83a28.56,28.56,0,1,0,28.56,28.56A28.59,28.59,0,0,0,319.77,118.83Zm0,62.3a33.74,33.74,0,1,1,33.74-33.74A33.78,33.78,0,0,1,319.77,181.12Z" transform="translate(-242.81 -72.9)"/><path class="cls-33" d="M319.77,118.69a28.69,28.69,0,1,0,28.69,28.69A28.72,28.72,0,0,0,319.77,118.69Zm0,62.3a33.61,33.61,0,1,1,33.61-33.61A33.65,33.65,0,0,1,319.77,181Z" transform="translate(-242.81 -72.9)"/><g class="cls-34"><path class="cls-35" d="M302.19,217.87l1.73-7.31a63.69,63.69,0,0,1-28.48-15.25l1.92-1.91c-12.41-11.48-19.53-29.61-19.53-44.61h-2.74c0.14-35,30.61-63.6,64.61-63.6v2.76c25,0,47.92,16.09,56.62,40l14.38-5.13c-10.85-29.87-41-49.93-71-49.93v4.76c-41,0-72,31.11-72.12,71.11h-4.78a76,76,0,0,0,24.35,55.58l3.16-3.47A71.1,71.1,0,0,0,302.19,217.87Z" transform="translate(-242.81 -72.9)"/><path class="cls-36" d="M252,147.47a68.54,68.54,0,0,0,68.72,68.34V208.6a72.21,72.21,0,0,0,9.67-.84l-0.09.64c14.27-2.36,27.24-9.09,36.69-20.13a61.4,61.4,0,0,0,14.73-39.49h6.57c0-38-30.47-69-68.15-69A67.7,67.7,0,0,0,252,147.47Zm68,53.74c-29.27,0-52.71-24.14-52.71-53.41s24.47-53.42,53.47-53.42V88.1c31,0,58.18,26.67,58.18,60.67,0,0,0-3,0,0H373C373,176.77,349.23,201.21,320,201.21Z" transform="translate(-242.81 -72.9)"/><path class="cls-35" d="M359.64,149.77a38.71,38.71,0,0,1-10.4,25l5.21,5.27A46.29,46.29,0,0,0,367,149.77h-7.38Z" transform="translate(-242.81 -72.9)"/><path class="cls-35" d="M346.71,177.23a38.79,38.79,0,0,1-25,10.4V195A46.33,46.33,0,0,0,352,182.45Z" transform="translate(-242.81 -72.9)"/><path class="cls-35" d="M349.24,120.75a38.88,38.88,0,0,1,10.4,25H367a46.38,46.38,0,0,0-12.56-30.26Z" transform="translate(-242.81 -72.9)"/><path class="cls-35" d="M317.71,195v-7.38a38.79,38.79,0,0,1-25-10.4l-5.25,5.21A46.33,46.33,0,0,0,317.71,195Z" transform="translate(-242.81 -72.9)"/><path class="cls-35" d="M290.19,174.73a38.71,38.71,0,0,1-10.4-25h-7.38A46.29,46.29,0,0,0,285,180Z" transform="translate(-242.81 -72.9)"/><path class="cls-35" d="M321.71,107.79a38.79,38.79,0,0,1,25,10.4L352,113a46.33,46.33,0,0,0-30.25-12.56v7.38Z" transform="translate(-242.81 -72.9)"/><path class="cls-35" d="M279.79,145.77a38.88,38.88,0,0,1,10.4-25L285,115.51a46.38,46.38,0,0,0-12.56,30.26h7.38Z" transform="translate(-242.81 -72.9)"/><path class="cls-35" d="M292.72,118.19a38.79,38.79,0,0,1,25-10.4v-7.38A46.33,46.33,0,0,0,287.47,113Z" transform="translate(-242.81 -72.9)"/></g></g></g></svg>
